X:5
T:Humpty Dumpty
B:Green and Gold, Steve MacDonogh, Brandon, 1983
N:a Dingle Wren tune, variant of The Kinnegad Slashers
N:transposed from Eb
Z:Paul de Grae  irtrad-l 2001-12-20
M:6/8
L:1/8
K:G
(3D/E/F/|G2 B G2 d|Bde d2 (3D/E/F/|G2 B GED|EAA AGE|
G2 B G2 d|Bde d3|BAB GED|EGG G2:|z|
|:G2 d dBA|GBd dBA|G2 d dBG|FAA AFD|
G2 d dBA|GBd d2 d|BAB GED|EGG G3:|
|:~B3 GED|~G3 G2 A|~B3 GED|EAA AGA|
~B3 GED|G3 G2 (3D/E/F/|G2 d dBA|BGF G3:||
